static/img/kroki/7b4230f021134b46f62b05a86459159d.svg

<?xml version="1.0" encoding="us-ascii" standalone="no"?><svg xmlns="http://www.w3.org/2000/svg" xmlns:xlink="http://www.w3.org/1999/xlink" contentStyleType="text/css" height="741px" preserveAspectRatio="none" style="width:383px;height:741px;" version="1.1" viewBox="0 0 383 741" width="383px" zoomAndPan="magnify"><defs/><g><!--class digitalocean_container_registry--><g id="elem_digitalocean_container_registry"><rect codeLine="23" fill="#3D176E" height="100.3828" id="digitalocean_container_registry" rx="2.5" ry="2.5" style="stroke:#000D19;stroke-width:0.5;" width="304" x="7" y="633.85"/><ellipse cx="22" cy="653.7445" fill="#ADD1B2" rx="11" ry="11" style="stroke:#181818;stroke-width:1.0;"/><path d="M24.9688,659.3852 Q24.3906,659.682 23.75,659.8227 Q23.1094,659.9789 22.4063,659.9789 Q19.9063,659.9789 18.5781,658.3383 Q17.2656,656.682 17.2656,653.557 Q17.2656,650.432 18.5781,648.7758 Q19.9063,647.1195 22.4063,647.1195 Q23.1094,647.1195 23.75,647.2758 Q24.4063,647.432 24.9688,647.7289 L24.9688,650.4477 Q24.3438,649.8695 23.75,649.6039 Q23.1563,649.3227 22.5313,649.3227 Q21.1875,649.3227 20.5,650.4008 Q19.8125,651.4633 19.8125,653.557 Q19.8125,655.6508 20.5,656.7289 Q21.1875,657.7914 22.5313,657.7914 Q23.1563,657.7914 23.75,657.5258 Q24.3438,657.2445 24.9688,656.6664 L24.9688,659.3852 Z " fill="#000000"/><text fill="#D9B8FF" font-family="Helvetica" font-size="17" lengthAdjust="spacing" textLength="262" x="41" y="659.6298">digitalocean_container_registry</text><line style="stroke:#000D19;stroke-width:0.5;" x1="8" x2="310" y1="673.6391" y2="673.6391"/><text fill="#D9B8FF" font-family="sans-serif" font-size="14" font-weight="bold" lengthAdjust="spacing" textLength="96" x="18" y="695.6342">is_read_only</text><text fill="#D9B8FF" font-family="sans-serif" font-size="14" lengthAdjust="spacing" textLength="65" x="114" y="695.6342">: boolean</text><text fill="#D9B8FF" font-family="sans-serif" font-size="14" font-weight="bold" lengthAdjust="spacing" textLength="167" x="18" y="721.9311">storage_usage_bytes</text><text fill="#D9B8FF" font-family="sans-serif" font-size="14" lengthAdjust="spacing" textLength="44" x="185" y="721.9311">: int64</text></g><!--class digitalocean_resource--><g id="elem_digitalocean_resource"><rect codeLine="27" fill="#3D176E" height="74.0859" id="digitalocean_resource" rx="2.5" ry="2.5" style="stroke:#000D19;stroke-width:0.5;" width="223" x="153.5" y="438.76"/><ellipse cx="168.5" cy="458.6545" fill="#ADD1B2" rx="11" ry="11" style="stroke:#181818;stroke-width:1.0;"/><path d="M171.4688,464.2952 Q170.8906,464.592 170.25,464.7327 Q169.6094,464.8889 168.9063,464.8889 Q166.4063,464.8889 165.0781,463.2483 Q163.7656,461.592 163.7656,458.467 Q163.7656,455.342 165.0781,453.6858 Q166.4063,452.0295 168.9063,452.0295 Q169.6094,452.0295 170.25,452.1858 Q170.9063,452.342 171.4688,452.6389 L171.4688,455.3577 Q170.8438,454.7795 170.25,454.5139 Q169.6563,454.2327 169.0313,454.2327 Q167.6875,454.2327 167,455.3108 Q166.3125,456.3733 166.3125,458.467 Q166.3125,460.5608 167,461.6389 Q167.6875,462.7014 169.0313,462.7014 Q169.6563,462.7014 170.25,462.4358 Q170.8438,462.1545 171.4688,461.5764 L171.4688,464.2952 Z " fill="#000000"/><text fill="#D9B8FF" font-family="Helvetica" font-size="17" lengthAdjust="spacing" textLength="181" x="187.5" y="464.5398">digitalocean_resource</text><line style="stroke:#000D19;stroke-width:0.5;" x1="154.5" x2="375.5" y1="478.5491" y2="478.5491"/><text fill="#D9B8FF" font-family="sans-serif" font-size="14" font-weight="bold" lengthAdjust="spacing" textLength="27" x="164.5" y="500.5442">urn</text><text fill="#D9B8FF" font-family="sans-serif" font-size="14" lengthAdjust="spacing" textLength="48" x="191.5" y="500.5442">: string</text></g><!--class resource--><g id="elem_resource"><rect codeLine="30" fill="#3D176E" height="310.7578" id="resource" rx="2.5" ry="2.5" style="stroke:#000D19;stroke-width:0.5;" width="227" x="22.5" y="7"/><ellipse cx="91.25" cy="26.8945" fill="#ADD1B2" rx="11" ry="11" style="stroke:#181818;stroke-width:1.0;"/><path d="M94.2188,32.5352 Q93.6406,32.832 93,32.9727 Q92.3594,33.1289 91.6563,33.1289 Q89.1563,33.1289 87.8281,31.4883 Q86.5156,29.832 86.5156,26.707 Q86.5156,23.582 87.8281,21.9258 Q89.1563,20.2695 91.6563,20.2695 Q92.3594,20.2695 93,20.4258 Q93.6563,20.582 94.2188,20.8789 L94.2188,23.5977 Q93.5938,23.0195 93,22.7539 Q92.4063,22.4727 91.7813,22.4727 Q90.4375,22.4727 89.75,23.5508 Q89.0625,24.6133 89.0625,26.707 Q89.0625,28.8008 89.75,29.8789 Q90.4375,30.9414 91.7813,30.9414 Q92.4063,30.9414 93,30.6758 Q93.5938,30.3945 94.2188,29.8164 L94.2188,32.5352 Z " fill="#000000"/><text fill="#D9B8FF" font-family="Helvetica" font-size="17" lengthAdjust="spacing" textLength="71" x="116.75" y="32.7798">resource</text><line style="stroke:#000D19;stroke-width:0.5;" x1="23.5" x2="248.5" y1="46.7891" y2="46.7891"/><text fill="#D9B8FF" font-family="sans-serif" font-size="14" font-weight="bold" lengthAdjust="spacing" textLength="29" x="33.5" y="68.7842">age</text><text fill="#D9B8FF" font-family="sans-serif" font-size="14" lengthAdjust="spacing" textLength="66" x="62.5" y="68.7842">: duration</text><text fill="#D9B8FF" font-family="sans-serif" font-size="14" font-weight="bold" lengthAdjust="spacing" textLength="43" x="33.5" y="95.0811">atime</text><text fill="#D9B8FF" font-family="sans-serif" font-size="14" lengthAdjust="spacing" textLength="70" x="76.5" y="95.0811">: datetime</text><text fill="#D9B8FF" font-family="sans-serif" font-size="14" font-weight="bold" lengthAdjust="spacing" textLength="43" x="33.5" y="121.3779">ctime</text><text fill="#D9B8FF" font-family="sans-serif" font-size="14" lengthAdjust="spacing" textLength="70" x="76.5" y="121.3779">: datetime</text><text fill="#D9B8FF" font-family="sans-serif" font-size="14" font-weight="bold" lengthAdjust="spacing" textLength="14" x="33.5" y="147.6748">id</text><text fill="#D9B8FF" font-family="sans-serif" font-size="14" lengthAdjust="spacing" textLength="48" x="47.5" y="147.6748">: string</text><text fill="#D9B8FF" font-family="sans-serif" font-size="14" font-weight="bold" lengthAdjust="spacing" textLength="33" x="33.5" y="173.9717">kind</text><text fill="#D9B8FF" font-family="sans-serif" font-size="14" lengthAdjust="spacing" textLength="48" x="66.5" y="173.9717">: string</text><text fill="#D9B8FF" font-family="sans-serif" font-size="14" font-weight="bold" lengthAdjust="spacing" textLength="90" x="33.5" y="200.2686">last_access</text><text fill="#D9B8FF" font-family="sans-serif" font-size="14" lengthAdjust="spacing" textLength="66" x="123.5" y="200.2686">: duration</text><text fill="#D9B8FF" font-family="sans-serif" font-size="14" font-weight="bold" lengthAdjust="spacing" textLength="90" x="33.5" y="226.5654">last_update</text><text fill="#D9B8FF" font-family="sans-serif" font-size="14" lengthAdjust="spacing" textLength="66" x="123.5" y="226.5654">: duration</text><text fill="#D9B8FF" font-family="sans-serif" font-size="14" font-weight="bold" lengthAdjust="spacing" textLength="48" x="33.5" y="252.8623">mtime</text><text fill="#D9B8FF" font-family="sans-serif" font-size="14" lengthAdjust="spacing" textLength="70" x="81.5" y="252.8623">: datetime</text><text fill="#D9B8FF" font-family="sans-serif" font-size="14" font-weight="bold" lengthAdjust="spacing" textLength="43" x="33.5" y="279.1592">name</text><text fill="#D9B8FF" font-family="sans-serif" font-size="14" lengthAdjust="spacing" textLength="48" x="76.5" y="279.1592">: string</text><text fill="#D9B8FF" font-family="sans-serif" font-size="14" font-weight="bold" lengthAdjust="spacing" textLength="34" x="33.5" y="305.4561">tags</text><text fill="#D9B8FF" font-family="sans-serif" font-size="14" lengthAdjust="spacing" textLength="171" x="67.5" y="305.4561">: dictionary[string, string]</text></g><!--reverse link digitalocean_resource to digitalocean_container_registry--><g id="link_digitalocean_resource_digitalocean_container_registry"><path codeLine="42" d="M238.0643,529.2106 C220.8943,562.6306 203.52,596.42 184.48,633.47 " fill="none" id="digitalocean_resource-backto-digitalocean_container_registry" style="stroke:#FFAF37;stroke-width:2.0;"/><polygon fill="none" points="246.29,513.2,232.7275,526.4687,243.4012,531.9525,246.29,513.2" style="stroke:#FFAF37;stroke-width:2.0;"/></g><!--reverse link resource to digitalocean_container_registry--><g id="link_resource_digitalocean_container_registry"><path codeLine="43" d="M131.3654,335.9292 C130.7754,396.7392 131.71,449.13 136,512.85 C138.75,553.75 145.18,599.81 150.55,633.69 " fill="none" id="resource-backto-digitalocean_container_registry" style="stroke:#FFAF37;stroke-width:2.0;"/><polygon fill="none" points="131.54,317.93,125.3656,335.8709,137.3651,335.9874,131.54,317.93" style="stroke:#FFAF37;stroke-width:2.0;"/></g><!--reverse link resource to digitalocean_resource--><g id="link_resource_digitalocean_resource"><path codeLine="44" d="M207.0108,334.8088 C225.6708,379.8388 237.47,408.35 249.97,438.52 " fill="none" id="resource-backto-digitalocean_resource" style="stroke:#FFAF37;stroke-width:2.0;"/><polygon fill="none" points="200.12,318.18,201.4679,337.1057,212.5537,332.5119,200.12,318.18" style="stroke:#FFAF37;stroke-width:2.0;"/></g><!--SRC=[hPFBJiCm44Nt-GfBx28gjRnA4HkeX6234B13A9hOazHgObVZ2IWy_XsxWIfD0jsmoMFkyRqp4sMX5GeiLroB4iiKoKLkgSqA24fnGMHVvxQm9FQo3BB3QLUyiePt0hTGehZ6uWLPI-WIZmijbmQT4mSjwHBaCYTR6TNOCu5nNaB3BMfUW7CNpAJJYh7LZ9gbfrdM9RkcUuTgCZt17cP98NqZu_5OJMPTP6VKdtDlY0VzXcBINjgjPUorsOjOKtzs6OXMaxr1V_HVUxm3fRJ9nN6hTj_qH0Pfg_wm06LV0vr1uTenZf7GSht2UMygd9sgR3e8t_m6HpAiJYYTQuR2IWIJI3y6QDzJGfXhnrIBzoYEjVFle19hYZgEpqHgRU5nhpYs13acbGlNj6Pq0T26JuwYpw48GcShahWshiW4t0VvYJVy5k9z0w8g0jOsPFfxsTI0CJpxcXoeQTNoZcE_c-s2p-84fFJ_IoTXhLIhuDLHoe4S0qrfOyoGDuvQXcD0zLEZxNypptxKuQMSVun6ertV9Ff7_4UBlW00]--></g></svg>

<svg xmlns="http://www.w3.org/2000/svg" width="383" height="741" viewBox="0 0 383 741"><rect width="304" height="100.383" x="7" y="633.85" fill="#3D176E" rx="2.5" ry="2.5" style="stroke:#000d19;stroke-width:.5"/><circle cx="22" cy="653.745" r="11" fill="#ADD1B2" style="stroke:#181818;stroke-width:1"/><path d="M24.969 659.385q-.578.297-1.219.438-.64.156-1.344.156-2.5 0-3.828-1.64-1.312-1.657-1.312-4.782t1.312-4.781q1.328-1.656 3.828-1.656.703 0 1.344.156.656.156 1.219.453v2.719q-.625-.578-1.219-.844-.594-.281-1.219-.281-1.343 0-2.031 1.078-.687 1.062-.687 3.156t.687 3.172q.688 1.062 2.031 1.062.625 0 1.219-.265.594-.281 1.219-.86z"/><text x="41" y="659.63" fill="#D9B8FF" font-family="Helvetica" font-size="17" textLength="262">digitalocean_container_registry</text><path d="M8 673.639h302" style="stroke:#000d19;stroke-width:.5"/><text x="18" y="695.634" fill="#D9B8FF" font-family="sans-serif" font-size="14" font-weight="bold" textLength="96">is_read_only</text><text x="114" y="695.634" fill="#D9B8FF" font-family="sans-serif" font-size="14" textLength="65">: boolean</text><text x="18" y="721.931" fill="#D9B8FF" font-family="sans-serif" font-size="14" font-weight="bold" textLength="167">storage_usage_bytes</text><text x="185" y="721.931" fill="#D9B8FF" font-family="sans-serif" font-size="14" textLength="44">: int64</text><rect width="223" height="74.086" x="153.5" y="438.76" fill="#3D176E" rx="2.5" ry="2.5" style="stroke:#000d19;stroke-width:.5"/><circle cx="168.5" cy="458.654" r="11" fill="#ADD1B2" style="stroke:#181818;stroke-width:1"/><path d="M171.469 464.295q-.578.297-1.219.438-.64.156-1.344.156-2.5 0-3.828-1.64-1.312-1.657-1.312-4.782t1.312-4.781q1.328-1.656 3.828-1.656.703 0 1.344.156.656.156 1.219.453v2.719q-.625-.579-1.219-.844-.594-.281-1.219-.281-1.344 0-2.031 1.078-.687 1.062-.687 3.156t.687 3.172q.688 1.062 2.031 1.062.625 0 1.219-.265.594-.281 1.219-.86z"/><text x="187.5" y="464.54" fill="#D9B8FF" font-family="Helvetica" font-size="17" textLength="181">digitalocean_resource</text><path d="M154.5 478.549h221" style="stroke:#000d19;stroke-width:.5"/><text x="164.5" y="500.544" fill="#D9B8FF" font-family="sans-serif" font-size="14" font-weight="bold" textLength="27">urn</text><text x="191.5" y="500.544" fill="#D9B8FF" font-family="sans-serif" font-size="14" textLength="48">: string</text><rect width="227" height="310.758" x="22.5" y="7" fill="#3D176E" rx="2.5" ry="2.5" style="stroke:#000d19;stroke-width:.5"/><circle cx="91.25" cy="26.895" r="11" fill="#ADD1B2" style="stroke:#181818;stroke-width:1"/><path d="M94.219 32.535q-.578.297-1.219.438-.64.156-1.344.156-2.5 0-3.828-1.64-1.312-1.657-1.312-4.782t1.312-4.781q1.328-1.656 3.828-1.656.703 0 1.344.156.656.156 1.219.453v2.719q-.625-.578-1.219-.844-.594-.281-1.219-.281-1.344 0-2.031 1.078-.687 1.062-.687 3.156t.687 3.172q.688 1.062 2.031 1.062.625 0 1.219-.265.594-.281 1.219-.86z"/><text x="116.75" y="32.78" fill="#D9B8FF" font-family="Helvetica" font-size="17" textLength="71">resource</text><path d="M23.5 46.789h225" style="stroke:#000d19;stroke-width:.5"/><text x="33.5" y="68.784" fill="#D9B8FF" font-family="sans-serif" font-size="14" font-weight="bold" textLength="29">age</text><text x="62.5" y="68.784" fill="#D9B8FF" font-family="sans-serif" font-size="14" textLength="66">: duration</text><text x="33.5" y="95.081" fill="#D9B8FF" font-family="sans-serif" font-size="14" font-weight="bold" textLength="43">atime</text><text x="76.5" y="95.081" fill="#D9B8FF" font-family="sans-serif" font-size="14" textLength="70">: datetime</text><text x="33.5" y="121.378" fill="#D9B8FF" font-family="sans-serif" font-size="14" font-weight="bold" textLength="43">ctime</text><text x="76.5" y="121.378" fill="#D9B8FF" font-family="sans-serif" font-size="14" textLength="70">: datetime</text><text x="33.5" y="147.675" fill="#D9B8FF" font-family="sans-serif" font-size="14" font-weight="bold" textLength="14">id</text><text x="47.5" y="147.675" fill="#D9B8FF" font-family="sans-serif" font-size="14" textLength="48">: string</text><text x="33.5" y="173.972" fill="#D9B8FF" font-family="sans-serif" font-size="14" font-weight="bold" textLength="33">kind</text><text x="66.5" y="173.972" fill="#D9B8FF" font-family="sans-serif" font-size="14" textLength="48">: string</text><text x="33.5" y="200.269" fill="#D9B8FF" font-family="sans-serif" font-size="14" font-weight="bold" textLength="90">last_access</text><text x="123.5" y="200.269" fill="#D9B8FF" font-family="sans-serif" font-size="14" textLength="66">: duration</text><text x="33.5" y="226.565" fill="#D9B8FF" font-family="sans-serif" font-size="14" font-weight="bold" textLength="90">last_update</text><text x="123.5" y="226.565" fill="#D9B8FF" font-family="sans-serif" font-size="14" textLength="66">: duration</text><text x="33.5" y="252.862" fill="#D9B8FF" font-family="sans-serif" font-size="14" font-weight="bold" textLength="48">mtime</text><text x="81.5" y="252.862" fill="#D9B8FF" font-family="sans-serif" font-size="14" textLength="70">: datetime</text><text x="33.5" y="279.159" fill="#D9B8FF" font-family="sans-serif" font-size="14" font-weight="bold" textLength="43">name</text><text x="76.5" y="279.159" fill="#D9B8FF" font-family="sans-serif" font-size="14" textLength="48">: string</text><text x="33.5" y="305.456" fill="#D9B8FF" font-family="sans-serif" font-size="14" font-weight="bold" textLength="34">tags</text><text x="67.5" y="305.456" fill="#D9B8FF" font-family="sans-serif" font-size="14" textLength="171">: dictionary[string, string]</text><g fill="none"><path d="M238.064 529.21c-17.17 33.42-34.544 67.21-53.584 104.26" style="stroke:#ffaf37;stroke-width:2"/><path d="m246.29 513.2-13.562 13.269 10.673 5.483z" style="stroke:#ffaf37;stroke-width:2"/></g><path fill="none" d="M131.365 335.93c-.59 60.81.345 113.2 4.635 176.92 2.75 40.9 9.18 86.96 14.55 120.84m-19.01-315.76-6.174 17.94 12 .117z" style="stroke:#ffaf37;stroke-width:2"/><g fill="none"><path d="M207.01 334.809c18.66 45.03 30.46 73.541 42.96 103.711" style="stroke:#ffaf37;stroke-width:2"/><path d="m200.12 318.18 1.348 18.926 11.086-4.594z" style="stroke:#ffaf37;stroke-width:2"/></g></svg>
